X: 20334
T: John Brosnan's
R: polka
M: 2/4
K: Dmajor
|:D>D DB|AF 2B|AF D>E|FE E2|
D>D DB|AF2B|AF EF|D3A:|
|:d2 cd|BA FA|d2 cd|B3c|
d2 cd|BA FB|AF EF|D3A:|
|:d2 e2|f3f|ed Bc|d3A|
Bc/B/ AF|Bc/B/ AF|AF EF|D3A:|

